static/fa/svgs/regular/face-grin-tongue-squint.svg

<svg xmlns="http://www.w3.org/2000/svg" viewBox="0 0 512 512"><!--! Font Awesome Free 6.1.1 by @fontawesome - https://fontawesome.com License - https://fontawesome.com/license/free (Icons: CC BY 4.0, Fonts: SIL OFL 1.1, Code: MIT License) Copyright 2022 Fonticons, Inc.--><path d="M116 157.1c0-8.9 9.6-14.7 17.5-10.4l89.9 47.9c10.7 5.7 10.7 21.1 0 26.8l-89.9 47.9c-7.9 4.3-17.5-1.5-17.5-10.4 0-2.8.1-5.5 2.8-7.7l36-43.2-36-43.2c-2.7-2.2-2.8-4.9-2.8-7.7zm262.5-10.4c7.9-4.3 17.5 1.5 17.5 10.4 0 2.8-1 5.5-2.8 7.7l-36 43.2 36 43.2c1.8 2.2 2.8 4.9 2.8 7.7 0 8.9-9.6 14.7-17.5 10.4l-89.9-47.9c-10.7-5.7-10.7-21.1 0-26.8l89.9-47.9zM512 256c0 141.4-114.6 256-256 256S0 397.4 0 256 114.6 0 256 0s256 114.6 256 256zM256 48C141.1 48 48 141.1 48 256c0 81.7 47.13 152.4 115.7 186.4-2.4-8.4-3.7-17.2-3.7-26.4v-23.3c-24.9-17.6-43.1-41.4-54.8-69.2-5-11.8 7-22.5 19.3-18.7 39.6 12.1 84.4 19 131.8 19 47.4 0 92.1-6.9 131.8-19 12.3-3.8 24.3 6.9 19.3 18.7-11.8 28-31.1 52-55.4 69.6V416c0 9.2-1.3 18-3.7 26.4 68.6-34 115.7-104.7 115.7-187.3 0-114-93.1-208-208-208v.9zm64 368v-37.4c0-14.7-11.9-26.6-26.6-26.6h-2c-11.3 0-21.1 7.9-23.6 18.9-3.7 12.6-20.8 12.6-23.6 0-2.5-11-12.3-18.9-23.6-18.9h-2c-14.7 0-26.6 11.9-26.6 26.6V416c0 35.3 28.7 64 64 64s64-28.7 64-64z"/></svg>

<svg xmlns="http://www.w3.org/2000/svg" viewBox="0 0 512 512"><!--! Font Awesome Free 6.1.1 by @fontawesome - https://fontawesome.com License - https://fontawesome.com/license/free (Icons: CC BY 4.0, Fonts: SIL OFL 1.1, Code: MIT License) Copyright 2022 Fonticons, Inc. --><path d="M116 157.1C116 148.2 125.6 142.4 133.5 146.7L223.4 194.6C234.1 200.3 234.1 215.7 223.4 221.4L133.5 269.3C125.6 273.6 116 267.8 116 258.9C116 256.1 116.1 253.4 118.8 251.2L154.8 208L118.8 164.8C116.1 162.6 116 159.9 116 157.1V157.1zM378.5 146.7C386.4 142.4 396 148.2 396 157.1C396 159.9 395 162.6 393.2 164.8L357.2 208L393.2 251.2C395 253.4 396 256.1 396 258.9C396 267.8 386.4 273.6 378.5 269.3L288.6 221.4C277.9 215.7 277.9 200.3 288.6 194.6L378.5 146.7zM512 256C512 397.4 397.4 512 256 512C114.6 512 0 397.4 0 256C0 114.6 114.6 0 256 0C397.4 0 512 114.6 512 256zM256 48C141.1 48 48 141.1 48 256C48 337.7 95.13 408.4 163.7 442.4C161.3 434 160 425.2 160 416V392.7C135.1 375.1 116.9 351.3 105.2 323.5C100.2 311.7 112.2 301 124.5 304.8C164.1 316.9 208.9 323.8 256.3 323.8C303.7 323.8 348.4 316.9 388.1 304.8C400.4 301 412.4 311.7 407.4 323.5C395.6 351.5 376.3 375.5 352 393.1V416C352 425.2 350.7 434 348.3 442.4C416.9 408.4 464 337.7 464 255.1C464 141.1 370.9 47.1 256 47.1L256 48zM320 416V378.6C320 363.9 308.1 352 293.4 352H291.4C280.1 352 270.3 359.9 267.8 370.9C264.1 383.5 247 383.5 244.2 370.9C241.7 359.9 231.9 352 220.6 352H218.6C203.9 352 192 363.9 192 378.6V416C192 451.3 220.7 480 256 480C291.3 480 320 451.3 320 416z"/></svg>
